Assets/Hamburger Menu.svg

<svg width="24" height="20" fill="none" xmlns="http://www.w3.org/2000/svg"><path d="M24 4H0V0h24v4zm0 4H0v4h24V8zm0 8H0v4h24v-4z" fill="#fff"/></svg>

<svg width="24" height="20" viewBox="0 0 24 20" fill="none" xmlns="http://www.w3.org/2000/svg">
<path d="M24 4H0V0H24V4ZM24 8H0V12H24V8ZM24 16H0V20H24V16Z" fill="white"/>
</svg>
